images/labajainspira-itinerante/2024/logos/radiantefm.svg

<svg clip-rule="evenodd" fill-rule="evenodd" stroke-linejoin="round" stroke-miterlimit="2" viewBox="0 0 233 99" xmlns="http://www.w3.org/2000/svg"><g transform="matrix(.907798 0 0 .58673 -546.149 169.562)"><path d="m601.736-288.994h255.766v167.5h-255.766z" fill="none"/><g fill="#af191a"><path d="m0-.779h.72c.836 0 1.446-.143 1.832-.427.387-.286.579-.733.579-1.344 0-.713-.18-1.221-.539-1.522-.361-.302-.965-.45-1.814-.45h-.778zm-3.637 7.509v-14.239h4.056c1.587 0 2.695.074 3.321.218.624.147 1.165.391 1.619.733.512.391.905.886 1.182 1.49.276.603.412 1.268.412 1.995 0 1.101-.269 1.997-.811 2.688-.543.691-1.331 1.15-2.367 1.377l3.879 5.738h-4.385l-3.269-5.575v5.575z" fill-rule="nonzero" transform="matrix(1.10157 0 0 1.70436 683.8623976 -204.58103756)"/><path d="m0 3.599h3.86l-1.448-4.698c-.047-.143-.108-.373-.184-.69-.079-.318-.18-.728-.302-1.227-.084.351-.168.686-.25 1.002-.08.319-.162.624-.247.915zm-5.437 5.32 4.912-14.239h4.863l4.921 14.239h-3.862l-.719-2.548h-5.514l-.739 2.548z" fill-rule="nonzero" transform="matrix(1.10157 0 0 1.70436 698.0616349 -208.3118816)"/><path d="m0 7.859h.652c1.523 0 2.636-.314 3.336-.938.701-.625 1.051-1.621 1.051-2.981 0-1.361-.35-2.361-1.051-2.997-.7-.635-1.813-.953-3.336-.953h-.652zm-3.841 3.19v-14.239h2.967c2.21 0 3.775.105 4.691.313.919.205 1.723.553 2.417 1.039.902.63 1.586 1.436 2.053 2.416.468.984.7 2.104.7 3.362 0 1.259-.232 2.377-.7 3.361-.467.98-1.151 1.786-2.053 2.416-.687.479-1.472.821-2.353 1.025-.882.206-2.25.307-4.104.307z" fill-rule="nonzero" transform="matrix(1.10157 0 0 1.70436 714.0013528 -211.9421684)"/><path d="m1108.55 675.641h3.92v14.239h-3.92z" transform="matrix(1.10157 0 0 1.70436 -494.465 -1368.91457156)"/><path d="m0 3.599h3.862l-1.45-4.698c-.045-.143-.108-.373-.184-.69-.079-.318-.178-.728-.302-1.227-.084.351-.168.686-.248 1.002-.08.319-.164.624-.248.915zm-5.437 5.32 4.912-14.239h4.863l4.921 14.239h-3.86l-.721-2.548h-5.514l-.739 2.548z" fill-rule="nonzero" transform="matrix(1.10157 0 0 1.70436 738.5994109 -208.3118816)"/><path d="m0 14.239v-14.239h3.743l5.38 7.323c.105.15.274.45.511.9.237.452.497.987.783 1.61-.078-.59-.134-1.115-.171-1.577-.035-.459-.052-.869-.052-1.225v-7.031h3.724v14.239h-3.724l-5.38-7.354c-.11-.148-.284-.448-.519-.898-.238-.45-.496-.981-.773-1.591.077.596.134 1.125.169 1.585.037.461.052.869.052 1.227v7.031z" fill-rule="nonzero" transform="matrix(1.10157 0 0 1.70436 750.2980843 -217.3790768)"/><path d="m0 14.239v-10.874h-3.19v-3.365h10.262v3.365h-3.191v10.874z" fill-rule="nonzero" transform="matrix(1.10157 0 0 1.70436 771.2499457 -217.3790768)"/><path d="m0 14.239v-14.239h8.723v3.122h-4.94v2.47h4.66v3.055h-4.66v2.402h4.94v3.19z" fill-rule="nonzero" transform="matrix(1.10157 0 0 1.70436 781.1310286 -217.3790768)"/><path d="m0 14.239v-14.239h7.051v1.216h-5.759v4.455h5.544v1.214h-5.544v7.354z" fill-rule="nonzero" transform="matrix(1.10157 0 0 1.70436 793.8541621 -217.3790768)"/><path d="m0 15.395-4.999-11.429-1.08 10.876h-1.333l1.937-14.842 5.456 12.672 5.66-12.672 1.828 14.842h-1.331l-1.06-10.876z" fill-rule="nonzero" transform="matrix(1.10157 0 0 1.70436 811.99702 -218.36249252)"/><path d="m0-.779h.72c.836 0 1.446-.143 1.832-.427.387-.286.579-.733.579-1.344 0-.713-.18-1.221-.539-1.522-.361-.302-.965-.45-1.814-.45h-.778zm-3.637 7.509v-14.239h4.056c1.587 0 2.695.074 3.321.218.624.147 1.165.391 1.619.733.512.391.905.886 1.182 1.49.276.603.412 1.268.412 1.995 0 1.101-.269 1.997-.811 2.688-.543.691-1.331 1.15-2.367 1.377l3.879 5.738h-4.385l-3.269-5.575v5.575z" fill-rule="nonzero" transform="matrix(1.10157 0 0 1.70436 683.8623976 -204.58103756)"/><path d="m0 3.599h3.86l-1.448-4.698c-.047-.143-.108-.373-.184-.69-.079-.318-.18-.728-.302-1.227-.084.351-.168.686-.25 1.002-.08.319-.162.624-.247.915zm-5.437 5.32 4.912-14.239h4.863l4.921 14.239h-3.862l-.719-2.548h-5.514l-.739 2.548z" fill-rule="nonzero" transform="matrix(1.10157 0 0 1.70436 698.0616349 -208.3118816)"/><path d="m0 7.859h.652c1.523 0 2.636-.314 3.336-.938.701-.625 1.051-1.621 1.051-2.981 0-1.361-.35-2.361-1.051-2.997-.7-.635-1.813-.953-3.336-.953h-.652zm-3.841 3.19v-14.239h2.967c2.21 0 3.775.105 4.691.313.919.205 1.723.553 2.417 1.039.902.63 1.586 1.436 2.053 2.416.468.984.7 2.104.7 3.362 0 1.259-.232 2.377-.7 3.361-.467.98-1.151 1.786-2.053 2.416-.687.479-1.472.821-2.353 1.025-.882.206-2.25.307-4.104.307z" fill-rule="nonzero" transform="matrix(1.10157 0 0 1.70436 714.0013528 -211.9421684)"/><path d="m1108.55 675.641h3.92v14.239h-3.92z" transform="matrix(1.10157 0 0 1.70436 -494.465 -1368.91457156)"/><path d="m0 3.599h3.862l-1.45-4.698c-.045-.143-.108-.373-.184-.69-.079-.318-.178-.728-.302-1.227-.084.351-.168.686-.248 1.002-.08.319-.164.624-.248.915zm-5.437 5.32 4.912-14.239h4.863l4.921 14.239h-3.86l-.721-2.548h-5.514l-.739 2.548z" fill-rule="nonzero" transform="matrix(1.10157 0 0 1.70436 738.5994109 -208.3118816)"/><path d="m0 14.239v-14.239h3.743l5.38 7.323c.105.15.274.45.511.9.237.452.497.987.783 1.61-.078-.59-.134-1.115-.171-1.577-.035-.459-.052-.869-.052-1.225v-7.031h3.724v14.239h-3.724l-5.38-7.354c-.11-.148-.284-.448-.519-.898-.238-.45-.496-.981-.773-1.591.077.596.134 1.125.169 1.585.037.461.052.869.052 1.227v7.031z" fill-rule="nonzero" transform="matrix(1.10157 0 0 1.70436 750.2980843 -217.3790768)"/><path d="m0 14.239v-10.874h-3.19v-3.365h10.262v3.365h-3.191v10.874z" fill-rule="nonzero" transform="matrix(1.10157 0 0 1.70436 771.2499457 -217.3790768)"/><path d="m0 14.239v-14.239h8.723v3.122h-4.94v2.47h4.66v3.055h-4.66v2.402h4.94v3.19z" fill-rule="nonzero" transform="matrix(1.10157 0 0 1.70436 781.1310286 -217.3790768)"/><path d="m0 14.239v-14.239h7.051v1.216h-5.759v4.455h5.544v1.214h-5.544v7.354z" fill-rule="nonzero" transform="matrix(1.10157 0 0 1.70436 793.8541621 -217.3790768)"/><path d="m0 15.395-4.999-11.429-1.08 10.876h-1.333l1.937-14.842 5.456 12.672 5.66-12.672 1.828 14.842h-1.331l-1.06-10.876z" fill-rule="nonzero" transform="matrix(1.10157 0 0 1.70436 811.99702 -218.36249252)"/><path d="m0-1.453c-.344.255-.886.38-1.631.38h-.64v-3.33h.692c.756 0 1.293.133 1.614.402.319.266.48.718.48 1.353 0 .543-.173.94-.515 1.195m4.537 7.059-3.452-5.105c.923-.201 1.626-.609 2.107-1.223.482-.616.722-1.413.722-2.393 0-.646-.122-1.237-.368-1.774-.244-.536-.595-.977-1.05-1.324-.405-.304-.884-.522-1.441-.653-.556-.129-1.542-.193-2.955-.193h-3.607v12.665h3.236v-4.957l2.906 4.957z" fill-rule="nonzero" transform="matrix(1.10157 0 0 1.70436 657.9644869 -204.71056892)"/><path d="m0 29.314v-1.416c7.302 0 13.239-5.942 13.239-13.24h1.419c0 8.08-6.577 14.656-14.658 14.656m0-2.948v-1.416c2.637 0 5.275-1.003 7.282-3.013 2.008-2.006 3.011-4.643 3.011-7.279h1.417c0 2.999-1.143 5.999-3.426 8.282-2.284 2.284-5.284 3.426-8.284 3.426m-8.521-11.708c0-4.701 3.823-8.521 8.521-8.521 4.699 0 8.521 3.82 8.521 8.521 0 4.698-3.822 8.519-8.521 8.519-4.698 0-8.521-3.821-8.521-8.519m-3.187 0c0-3 1.141-6 3.424-8.284 2.285-2.285 5.284-3.426 8.284-3.426v1.415c-2.637 0-5.273 1.003-7.281 3.013-2.008 2.006-3.011 4.645-3.011 7.282zm-2.948 0c0-8.083 6.574-14.659 14.656-14.659v1.418c-7.3 0-13.24 5.939-13.24 13.241zm14.656-16.074c-8.863 0-16.072 7.211-16.072 16.074 0 8.861 7.209 16.072 16.072 16.072s16.074-7.211 16.074-16.072c0-8.863-7.211-16.074-16.074-16.074" fill-rule="nonzero" transform="matrix(1.10157 0 0 1.70436 656.7197128 -230.22483812)"/><path d="m0-1.453c-.344.255-.886.38-1.631.38h-.64v-3.33h.692c.756 0 1.293.133 1.614.402.319.266.48.718.48 1.353 0 .543-.173.94-.515 1.195m4.537 7.059-3.452-5.105c.923-.201 1.626-.609 2.107-1.223.482-.616.722-1.413.722-2.393 0-.646-.122-1.237-.368-1.774-.244-.536-.595-.977-1.05-1.324-.405-.304-.884-.522-1.441-.653-.556-.129-1.542-.193-2.955-.193h-3.607v12.665h3.236v-4.957l2.906 4.957z" fill-rule="nonzero" transform="matrix(1.10157 0 0 1.70436 657.9644869 -204.71056892)"/><path d="m0 29.314v-1.416c7.302 0 13.239-5.942 13.239-13.24h1.419c0 8.08-6.577 14.656-14.658 14.656m0-2.948v-1.416c2.637 0 5.275-1.003 7.282-3.013 2.008-2.006 3.011-4.643 3.011-7.279h1.417c0 2.999-1.143 5.999-3.426 8.282-2.284 2.284-5.284 3.426-8.284 3.426m-8.521-11.708c0-4.701 3.823-8.521 8.521-8.521 4.699 0 8.521 3.82 8.521 8.521 0 4.698-3.822 8.519-8.521 8.519-4.698 0-8.521-3.821-8.521-8.519m-3.187 0c0-3 1.141-6 3.424-8.284 2.285-2.285 5.284-3.426 8.284-3.426v1.415c-2.637 0-5.273 1.003-7.281 3.013-2.008 2.006-3.011 4.645-3.011 7.282zm-2.948 0c0-8.083 6.574-14.659 14.656-14.659v1.418c-7.3 0-13.24 5.939-13.24 13.241zm14.656-16.074c-8.863 0-16.072 7.211-16.072 16.074 0 8.861 7.209 16.072 16.072 16.072s16.074-7.211 16.074-16.072c0-8.863-7.211-16.074-16.074-16.074" fill-rule="nonzero" transform="matrix(1.10157 0 0 1.70436 656.7197128 -230.22483812)"/></g></g></svg>

<?xml version="1.0" encoding="UTF-8" standalone="no"?>
<!DOCTYPE svg PUBLIC "-//W3C//DTD SVG 1.1//EN" "http://www.w3.org/Graphics/SVG/1.1/DTD/svg11.dtd">
<svg width="100%" height="100%" viewBox="0 0 233 99" version="1.1" xmlns="http://www.w3.org/2000/svg" xmlns:xlink="http://www.w3.org/1999/xlink" xml:space="preserve" xmlns:serif="http://www.serif.com/" style="fill-rule:evenodd;clip-rule:evenodd;stroke-linejoin:round;stroke-miterlimit:2;">
    <g transform="matrix(1,0,0,1,-433,0)">
        <g id="Artboard1" transform="matrix(0.907798,0,0,0.58673,-113.149,169.562)">
            <rect x="601.736" y="-288.994" width="255.766" height="167.5" style="fill:none;"/>
            <g id="radiantefm" transform="matrix(1.10157,0,0,1.70436,-494.465,-882.284)">
                <g transform="matrix(1,0,0,1,1069.68,397.629)">
                    <path d="M0,-0.779L0.72,-0.779C1.556,-0.779 2.166,-0.922 2.552,-1.206C2.939,-1.492 3.131,-1.939 3.131,-2.55C3.131,-3.263 2.951,-3.771 2.592,-4.072C2.231,-4.374 1.627,-4.522 0.778,-4.522L0,-4.522L0,-0.779ZM-3.637,6.73L-3.637,-7.509L0.419,-7.509C2.006,-7.509 3.114,-7.435 3.74,-7.291C4.364,-7.144 4.905,-6.9 5.359,-6.558C5.871,-6.167 6.264,-5.672 6.541,-5.068C6.817,-4.465 6.953,-3.8 6.953,-3.073C6.953,-1.972 6.684,-1.076 6.142,-0.385C5.599,0.306 4.811,0.765 3.775,0.992L7.654,6.73L3.269,6.73L0,1.155L0,6.73L-3.637,6.73Z" style="fill:rgb(175,25,26);fill-rule:nonzero;"/>
                </g>
                <g transform="matrix(1,0,0,1,1082.57,395.44)">
                    <path d="M0,3.599L3.86,3.599L2.412,-1.099C2.365,-1.242 2.304,-1.472 2.228,-1.789C2.149,-2.107 2.048,-2.517 1.926,-3.016C1.842,-2.665 1.758,-2.33 1.676,-2.014C1.596,-1.695 1.514,-1.39 1.429,-1.099L0,3.599ZM-5.437,8.919L-0.525,-5.32L4.338,-5.32L9.259,8.919L5.397,8.919L4.678,6.371L-0.836,6.371L-1.575,8.919L-5.437,8.919Z" style="fill:rgb(175,25,26);fill-rule:nonzero;"/>
                </g>
                <g transform="matrix(1,0,0,1,1097.04,393.31)">
                    <path d="M0,7.859L0.652,7.859C2.175,7.859 3.288,7.545 3.988,6.921C4.689,6.296 5.039,5.3 5.039,3.94C5.039,2.579 4.689,1.579 3.988,0.943C3.288,0.308 2.175,-0.01 0.652,-0.01L0,-0.01L0,7.859ZM-3.841,11.049L-3.841,-3.19L-0.874,-3.19C1.336,-3.19 2.901,-3.085 3.817,-2.877C4.736,-2.672 5.54,-2.324 6.234,-1.838C7.136,-1.208 7.82,-0.402 8.287,0.578C8.755,1.562 8.987,2.682 8.987,3.94C8.987,5.199 8.755,6.317 8.287,7.301C7.82,8.281 7.136,9.087 6.234,9.717C5.547,10.196 4.762,10.538 3.881,10.742C2.999,10.948 1.631,11.049 -0.223,11.049L-3.841,11.049Z" style="fill:rgb(175,25,26);fill-rule:nonzero;"/>
                </g>
                <g transform="matrix(1,0,0,1,0,-285.521)">
                    <rect x="1108.55" y="675.641" width="3.92" height="14.239" style="fill:rgb(175,25,26);"/>
                </g>
                <g transform="matrix(1,0,0,1,1119.37,395.44)">
                    <path d="M0,3.599L3.862,3.599L2.412,-1.099C2.367,-1.242 2.304,-1.472 2.228,-1.789C2.149,-2.107 2.05,-2.517 1.926,-3.016C1.842,-2.665 1.758,-2.33 1.678,-2.014C1.598,-1.695 1.514,-1.39 1.43,-1.099L0,3.599ZM-5.437,8.919L-0.525,-5.32L4.338,-5.32L9.259,8.919L5.399,8.919L4.678,6.371L-0.836,6.371L-1.575,8.919L-5.437,8.919Z" style="fill:rgb(175,25,26);fill-rule:nonzero;"/>
                </g>
                <g transform="matrix(1,0,0,1,1129.99,390.12)">
                    <path d="M0,14.239L0,0L3.743,0L9.123,7.323C9.228,7.473 9.397,7.773 9.634,8.223C9.871,8.675 10.131,9.21 10.417,9.833C10.339,9.243 10.283,8.718 10.246,8.256C10.211,7.797 10.194,7.387 10.194,7.031L10.194,0L13.918,0L13.918,14.239L10.194,14.239L4.814,6.885C4.704,6.737 4.53,6.437 4.295,5.987C4.057,5.537 3.799,5.006 3.522,4.396C3.599,4.992 3.656,5.521 3.691,5.981C3.728,6.442 3.743,6.85 3.743,7.208L3.743,14.239L0,14.239Z" style="fill:rgb(175,25,26);fill-rule:nonzero;"/>
                </g>
                <g transform="matrix(1,0,0,1,1149.01,390.12)">
                    <path d="M0,14.239L0,3.365L-3.19,3.365L-3.19,0L7.072,0L7.072,3.365L3.881,3.365L3.881,14.239L0,14.239Z" style="fill:rgb(175,25,26);fill-rule:nonzero;"/>
                </g>
                <g transform="matrix(1,0,0,1,1157.98,390.12)">
                    <path d="M0,14.239L0,0L8.723,0L8.723,3.122L3.783,3.122L3.783,5.592L8.443,5.592L8.443,8.647L3.783,8.647L3.783,11.049L8.723,11.049L8.723,14.239L0,14.239Z" style="fill:rgb(175,25,26);fill-rule:nonzero;"/>
                </g>
                <g transform="matrix(1,0,0,1,1169.53,390.12)">
                    <path d="M0,14.239L0,0L7.051,0L7.051,1.216L1.292,1.216L1.292,5.671L6.836,5.671L6.836,6.885L1.292,6.885L1.292,14.239L0,14.239Z" style="fill:rgb(175,25,26);fill-rule:nonzero;"/>
                </g>
                <g transform="matrix(1,0,0,1,1186,389.543)">
                    <path d="M0,15.395L-4.999,3.966L-6.079,14.842L-7.412,14.842L-5.475,0L-0.019,12.672L5.641,0L7.469,14.842L6.138,14.842L5.078,3.966L0,15.395Z" style="fill:rgb(175,25,26);fill-rule:nonzero;"/>
                </g>
                <g transform="matrix(1,0,0,1,1069.68,397.629)">
                    <path d="M0,-0.779L0.72,-0.779C1.556,-0.779 2.166,-0.922 2.552,-1.206C2.939,-1.492 3.131,-1.939 3.131,-2.55C3.131,-3.263 2.951,-3.771 2.592,-4.072C2.231,-4.374 1.627,-4.522 0.778,-4.522L0,-4.522L0,-0.779ZM-3.637,6.73L-3.637,-7.509L0.419,-7.509C2.006,-7.509 3.114,-7.435 3.74,-7.291C4.364,-7.144 4.905,-6.9 5.359,-6.558C5.871,-6.167 6.264,-5.672 6.541,-5.068C6.817,-4.465 6.953,-3.8 6.953,-3.073C6.953,-1.972 6.684,-1.076 6.142,-0.385C5.599,0.306 4.811,0.765 3.775,0.992L7.654,6.73L3.269,6.73L0,1.155L0,6.73L-3.637,6.73Z" style="fill:rgb(175,25,26);fill-rule:nonzero;"/>
                </g>
                <g transform="matrix(1,0,0,1,1082.57,395.44)">
                    <path d="M0,3.599L3.86,3.599L2.412,-1.099C2.365,-1.242 2.304,-1.472 2.228,-1.789C2.149,-2.107 2.048,-2.517 1.926,-3.016C1.842,-2.665 1.758,-2.33 1.676,-2.014C1.596,-1.695 1.514,-1.39 1.429,-1.099L0,3.599ZM-5.437,8.919L-0.525,-5.32L4.338,-5.32L9.259,8.919L5.397,8.919L4.678,6.371L-0.836,6.371L-1.575,8.919L-5.437,8.919Z" style="fill:rgb(175,25,26);fill-rule:nonzero;"/>
                </g>
                <g transform="matrix(1,0,0,1,1097.04,393.31)">
                    <path d="M0,7.859L0.652,7.859C2.175,7.859 3.288,7.545 3.988,6.921C4.689,6.296 5.039,5.3 5.039,3.94C5.039,2.579 4.689,1.579 3.988,0.943C3.288,0.308 2.175,-0.01 0.652,-0.01L0,-0.01L0,7.859ZM-3.841,11.049L-3.841,-3.19L-0.874,-3.19C1.336,-3.19 2.901,-3.085 3.817,-2.877C4.736,-2.672 5.54,-2.324 6.234,-1.838C7.136,-1.208 7.82,-0.402 8.287,0.578C8.755,1.562 8.987,2.682 8.987,3.94C8.987,5.199 8.755,6.317 8.287,7.301C7.82,8.281 7.136,9.087 6.234,9.717C5.547,10.196 4.762,10.538 3.881,10.742C2.999,10.948 1.631,11.049 -0.223,11.049L-3.841,11.049Z" style="fill:rgb(175,25,26);fill-rule:nonzero;"/>
                </g>
                <g transform="matrix(1,0,0,1,0,-285.521)">
                    <rect x="1108.55" y="675.641" width="3.92" height="14.239" style="fill:rgb(175,25,26);"/>
                </g>
                <g transform="matrix(1,0,0,1,1119.37,395.44)">
                    <path d="M0,3.599L3.862,3.599L2.412,-1.099C2.367,-1.242 2.304,-1.472 2.228,-1.789C2.149,-2.107 2.05,-2.517 1.926,-3.016C1.842,-2.665 1.758,-2.33 1.678,-2.014C1.598,-1.695 1.514,-1.39 1.43,-1.099L0,3.599ZM-5.437,8.919L-0.525,-5.32L4.338,-5.32L9.259,8.919L5.399,8.919L4.678,6.371L-0.836,6.371L-1.575,8.919L-5.437,8.919Z" style="fill:rgb(175,25,26);fill-rule:nonzero;"/>
                </g>
                <g transform="matrix(1,0,0,1,1129.99,390.12)">
                    <path d="M0,14.239L0,0L3.743,0L9.123,7.323C9.228,7.473 9.397,7.773 9.634,8.223C9.871,8.675 10.131,9.21 10.417,9.833C10.339,9.243 10.283,8.718 10.246,8.256C10.211,7.797 10.194,7.387 10.194,7.031L10.194,0L13.918,0L13.918,14.239L10.194,14.239L4.814,6.885C4.704,6.737 4.53,6.437 4.295,5.987C4.057,5.537 3.799,5.006 3.522,4.396C3.599,4.992 3.656,5.521 3.691,5.981C3.728,6.442 3.743,6.85 3.743,7.208L3.743,14.239L0,14.239Z" style="fill:rgb(175,25,26);fill-rule:nonzero;"/>
                </g>
                <g transform="matrix(1,0,0,1,1149.01,390.12)">
                    <path d="M0,14.239L0,3.365L-3.19,3.365L-3.19,0L7.072,0L7.072,3.365L3.881,3.365L3.881,14.239L0,14.239Z" style="fill:rgb(175,25,26);fill-rule:nonzero;"/>
                </g>
                <g transform="matrix(1,0,0,1,1157.98,390.12)">
                    <path d="M0,14.239L0,0L8.723,0L8.723,3.122L3.783,3.122L3.783,5.592L8.443,5.592L8.443,8.647L3.783,8.647L3.783,11.049L8.723,11.049L8.723,14.239L0,14.239Z" style="fill:rgb(175,25,26);fill-rule:nonzero;"/>
                </g>
                <g transform="matrix(1,0,0,1,1169.53,390.12)">
                    <path d="M0,14.239L0,0L7.051,0L7.051,1.216L1.292,1.216L1.292,5.671L6.836,5.671L6.836,6.885L1.292,6.885L1.292,14.239L0,14.239Z" style="fill:rgb(175,25,26);fill-rule:nonzero;"/>
                </g>
                <g transform="matrix(1,0,0,1,1186,389.543)">
                    <path d="M0,15.395L-4.999,3.966L-6.079,14.842L-7.412,14.842L-5.475,0L-0.019,12.672L5.641,0L7.469,14.842L6.138,14.842L5.078,3.966L0,15.395Z" style="fill:rgb(175,25,26);fill-rule:nonzero;"/>
                </g>
                <g transform="matrix(1,0,0,1,1046.17,397.553)">
                    <path d="M0,-1.453C-0.344,-1.198 -0.886,-1.073 -1.631,-1.073L-2.271,-1.073L-2.271,-4.403L-1.579,-4.403C-0.823,-4.403 -0.286,-4.27 0.035,-4.001C0.354,-3.735 0.515,-3.283 0.515,-2.648C0.515,-2.105 0.342,-1.708 0,-1.453M4.537,5.606L1.085,0.501C2.008,0.3 2.711,-0.108 3.192,-0.722C3.674,-1.338 3.914,-2.135 3.914,-3.115C3.914,-3.761 3.792,-4.352 3.546,-4.889C3.302,-5.425 2.951,-5.866 2.496,-6.213C2.091,-6.517 1.612,-6.735 1.055,-6.866C0.499,-6.995 -0.487,-7.059 -1.9,-7.059L-5.507,-7.059L-5.507,5.606L-2.271,5.606L-2.271,0.649L0.635,5.606L4.537,5.606Z" style="fill:rgb(175,25,26);fill-rule:nonzero;"/>
                </g>
                <g transform="matrix(1,0,0,1,1045.04,382.583)">
                    <path d="M0,29.314L0,27.898C7.302,27.898 13.239,21.956 13.239,14.658L14.658,14.658C14.658,22.738 8.081,29.314 0,29.314M0,26.366L0,24.95C2.637,24.95 5.275,23.947 7.282,21.937C9.29,19.931 10.293,17.294 10.293,14.658L11.71,14.658C11.71,17.657 10.567,20.657 8.284,22.94C6,25.224 3,26.366 0,26.366M-8.521,14.658C-8.521,9.957 -4.698,6.137 0,6.137C4.699,6.137 8.521,9.957 8.521,14.658C8.521,19.356 4.699,23.177 0,23.177C-4.698,23.177 -8.521,19.356 -8.521,14.658M-11.708,14.658C-11.708,11.658 -10.567,8.658 -8.284,6.374C-5.999,4.089 -3,2.948 0,2.948L0,4.363C-2.637,4.363 -5.273,5.366 -7.281,7.376C-9.289,9.382 -10.292,12.021 -10.292,14.658L-11.708,14.658ZM-14.656,14.658C-14.656,6.575 -8.082,-0.001 0,-0.001L0,1.417C-7.3,1.417 -13.24,7.356 -13.24,14.658L-14.656,14.658ZM0,-1.416C-8.863,-1.416 -16.072,5.795 -16.072,14.658C-16.072,23.519 -8.863,30.73 0,30.73C8.863,30.73 16.074,23.519 16.074,14.658C16.074,5.795 8.863,-1.416 0,-1.416" style="fill:rgb(175,25,26);fill-rule:nonzero;"/>
                </g>
                <g transform="matrix(1,0,0,1,1046.17,397.553)">
                    <path d="M0,-1.453C-0.344,-1.198 -0.886,-1.073 -1.631,-1.073L-2.271,-1.073L-2.271,-4.403L-1.579,-4.403C-0.823,-4.403 -0.286,-4.27 0.035,-4.001C0.354,-3.735 0.515,-3.283 0.515,-2.648C0.515,-2.105 0.342,-1.708 0,-1.453M4.537,5.606L1.085,0.501C2.008,0.3 2.711,-0.108 3.192,-0.722C3.674,-1.338 3.914,-2.135 3.914,-3.115C3.914,-3.761 3.792,-4.352 3.546,-4.889C3.302,-5.425 2.951,-5.866 2.496,-6.213C2.091,-6.517 1.612,-6.735 1.055,-6.866C0.499,-6.995 -0.487,-7.059 -1.9,-7.059L-5.507,-7.059L-5.507,5.606L-2.271,5.606L-2.271,0.649L0.635,5.606L4.537,5.606Z" style="fill:rgb(175,25,26);fill-rule:nonzero;"/>
                </g>
                <g transform="matrix(1,0,0,1,1045.04,382.583)">
                    <path d="M0,29.314L0,27.898C7.302,27.898 13.239,21.956 13.239,14.658L14.658,14.658C14.658,22.738 8.081,29.314 0,29.314M0,26.366L0,24.95C2.637,24.95 5.275,23.947 7.282,21.937C9.29,19.931 10.293,17.294 10.293,14.658L11.71,14.658C11.71,17.657 10.567,20.657 8.284,22.94C6,25.224 3,26.366 0,26.366M-8.521,14.658C-8.521,9.957 -4.698,6.137 0,6.137C4.699,6.137 8.521,9.957 8.521,14.658C8.521,19.356 4.699,23.177 0,23.177C-4.698,23.177 -8.521,19.356 -8.521,14.658M-11.708,14.658C-11.708,11.658 -10.567,8.658 -8.284,6.374C-5.999,4.089 -3,2.948 0,2.948L0,4.363C-2.637,4.363 -5.273,5.366 -7.281,7.376C-9.289,9.382 -10.292,12.021 -10.292,14.658L-11.708,14.658ZM-14.656,14.658C-14.656,6.575 -8.082,-0.001 0,-0.001L0,1.417C-7.3,1.417 -13.24,7.356 -13.24,14.658L-14.656,14.658ZM0,-1.416C-8.863,-1.416 -16.072,5.795 -16.072,14.658C-16.072,23.519 -8.863,30.73 0,30.73C8.863,30.73 16.074,23.519 16.074,14.658C16.074,5.795 8.863,-1.416 0,-1.416" style="fill:rgb(175,25,26);fill-rule:nonzero;"/>
                </g>
            </g>
        </g>
    </g>
</svg>
